src/assets/icons/master-card.svg

<svg width="42" height="32" viewBox="0 0 42 32" fill="none" xmlns="http://www.w3.org/2000/svg">
<path id="Vector" d="M8.09696 31.9292V29.8053C8.09696 28.9912 7.6014 28.4602 6.75187 28.4602C6.3271 28.4602 5.86694 28.6018 5.54837 29.062C5.30058 28.6726 4.94661 28.4602 4.41565 28.4602C4.06168 28.4602 3.70771 28.5664 3.42453 28.9558V28.531H2.68119V31.9292H3.42453V30.0531C3.42453 29.4513 3.7431 29.1681 4.23866 29.1681C4.73422 29.1681 4.98201 29.4867 4.98201 30.0531V31.9292H5.72535V30.0531C5.72535 29.4513 6.07932 29.1681 6.53948 29.1681C7.03504 29.1681 7.28283 29.4867 7.28283 30.0531V31.9292H8.09696ZM19.1055 28.531H17.902V27.5044H17.1586V28.531H16.4861V29.2035H17.1586V30.7611C17.1586 31.5398 17.4772 32 18.3268 32C18.6453 32 18.9993 31.8938 19.2471 31.7522L19.0347 31.115C18.8223 31.2566 18.5745 31.292 18.3976 31.292C18.0436 31.292 17.902 31.0797 17.902 30.7257V29.2035H19.1055V28.531ZM25.4062 28.4602C24.9814 28.4602 24.6983 28.6726 24.5213 28.9558V28.531H23.7779V31.9292H24.5213V30.0177C24.5213 29.4513 24.769 29.1328 25.2292 29.1328C25.3708 29.1328 25.5478 29.1681 25.6894 29.2035L25.9018 28.4956C25.7602 28.4602 25.5478 28.4602 25.4062 28.4602ZM15.8843 28.8142C15.5304 28.5664 15.0348 28.4602 14.5039 28.4602C13.6543 28.4602 13.088 28.885 13.088 29.5575C13.088 30.1239 13.5127 30.4425 14.2561 30.5487L14.61 30.5841C14.9994 30.6549 15.2118 30.7611 15.2118 30.9381C15.2118 31.1858 14.9286 31.3628 14.4331 31.3628C13.9375 31.3628 13.5481 31.1858 13.3004 31.0089L12.9464 31.5752C13.3358 31.8584 13.8667 32 14.3977 32C15.3888 32 15.9551 31.5398 15.9551 30.9027C15.9551 30.3009 15.495 29.9823 14.787 29.8761L14.4331 29.8407C14.1145 29.8053 13.8667 29.7345 13.8667 29.5221C13.8667 29.2743 14.1145 29.1328 14.5039 29.1328C14.9286 29.1328 15.3534 29.3097 15.5658 29.4159L15.8843 28.8142ZM35.636 28.4602C35.2112 28.4602 34.9281 28.6726 34.7511 28.9558V28.531H34.0077V31.9292H34.7511V30.0177C34.7511 29.4513 34.9989 29.1328 35.459 29.1328C35.6006 29.1328 35.7776 29.1681 35.9192 29.2035L36.1316 28.4956C35.99 28.4602 35.7776 28.4602 35.636 28.4602ZM26.1495 30.2301C26.1495 31.2566 26.8575 32 27.9548 32C28.4504 32 28.8043 31.8938 29.1583 31.6106L28.8043 31.0089C28.5212 31.2212 28.238 31.3274 27.9194 31.3274C27.3176 31.3274 26.8929 30.9027 26.8929 30.2301C26.8929 29.5929 27.3176 29.1681 27.9194 29.1328C28.238 29.1328 28.5212 29.2389 28.8043 29.4513L29.1583 28.8496C28.8043 28.5664 28.4504 28.4602 27.9548 28.4602C26.8575 28.4602 26.1495 29.2035 26.1495 30.2301ZM33.0166 30.2301V28.531H32.2733V28.9558C32.0255 28.6372 31.6715 28.4602 31.2113 28.4602C30.2556 28.4602 29.5123 29.2035 29.5123 30.2301C29.5123 31.2566 30.2556 32 31.2113 32C31.7069 32 32.0609 31.823 32.2733 31.5044V31.9292H33.0166V30.2301ZM30.291 30.2301C30.291 29.6283 30.6804 29.1328 31.3175 29.1328C31.9193 29.1328 32.3441 29.5929 32.3441 30.2301C32.3441 30.8319 31.9193 31.3274 31.3175 31.3274C30.6804 31.292 30.291 30.8319 30.291 30.2301ZM21.4063 28.4602C20.4152 28.4602 19.7073 29.1681 19.7073 30.2301C19.7073 31.292 20.4152 32 21.4417 32C21.9373 32 22.4328 31.8584 22.8222 31.5398L22.4682 31.0089C22.1851 31.2212 21.8311 31.3628 21.4771 31.3628C21.0169 31.3628 20.5568 31.1505 20.4506 30.5487H22.9638C22.9638 30.4425 22.9638 30.3717 22.9638 30.2655C22.9992 29.1681 22.362 28.4602 21.4063 28.4602ZM21.4063 29.0974C21.8665 29.0974 22.185 29.3805 22.2558 29.9115H20.486C20.5568 29.4513 20.8754 29.0974 21.4063 29.0974ZM39.8483 30.2301V27.1859H39.1049V28.9558C38.8571 28.6372 38.5032 28.4602 38.043 28.4602C37.0873 28.4602 36.3439 29.2035 36.3439 30.2301C36.3439 31.2566 37.0873 32 38.043 32C38.5386 32 38.8925 31.823 39.1049 31.5044V31.9292H39.8483V30.2301ZM37.1227 30.2301C37.1227 29.6283 37.512 29.1328 38.1492 29.1328C38.7509 29.1328 39.1757 29.5929 39.1757 30.2301C39.1757 30.8319 38.7509 31.3274 38.1492 31.3274C37.512 31.292 37.1227 30.8319 37.1227 30.2301ZM12.2738 30.2301V28.531H11.5305V28.9558C11.2827 28.6372 10.9287 28.4602 10.4686 28.4602C9.51285 28.4602 8.7695 29.2035 8.7695 30.2301C8.7695 31.2566 9.51285 32 10.4686 32C10.9641 32 11.3181 31.823 11.5305 31.5044V31.9292H12.2738V30.2301ZM9.51285 30.2301C9.51285 29.6283 9.90221 29.1328 10.5394 29.1328C11.1411 29.1328 11.5659 29.5929 11.5659 30.2301C11.5659 30.8319 11.1411 31.3274 10.5394 31.3274C9.90221 31.292 9.51285 30.8319 9.51285 30.2301ZM20.0966 23.1151C20.2028 23.1859 20.309 23.292 20.4152 23.3628C18.3976 24.708 15.9551 25.4867 13.3711 25.4867C6.3271 25.4867 0.628143 19.7876 0.628143 12.7434C0.628143 5.69912 6.3271 0 13.3711 0C15.9905 0 18.3976 0.778761 20.4152 2.12389C20.309 2.19469 20.2028 2.30089 20.0966 2.37169C17.0878 4.99116 15.3888 8.74336 15.3888 12.7434C15.3888 16.7434 17.0878 20.4956 20.0966 23.1151ZM29.0875 0C26.4681 0 24.0611 0.778761 22.0435 2.12389C22.1497 2.19469 22.2559 2.30089 22.362 2.37169C25.3708 4.99116 27.0699 8.74336 27.0699 12.7434C27.0699 16.708 25.3354 20.4956 22.362 23.1151C22.2559 23.1859 22.1497 23.292 22.0435 23.3628C24.0611 24.708 26.5035 25.4867 29.0875 25.4867C36.1316 25.4867 41.8305 19.7876 41.8305 12.7434C41.8305 5.73451 36.1316 0 29.0875 0ZM21.2293 2.76107C21.0523 2.90266 20.9108 3.00885 20.7338 3.15044C18.0436 5.48672 16.3445 8.92036 16.3445 12.7788C16.3445 16.6018 18.0436 20.0708 20.7338 22.4071C20.8754 22.5487 21.0523 22.6903 21.2293 22.7965C21.4063 22.6549 21.5479 22.5487 21.7249 22.4071C24.4151 20.0708 26.1141 16.6372 26.1141 12.7788C26.1141 8.95576 24.4151 5.48672 21.7249 3.15044C21.5479 3.00885 21.4063 2.86726 21.2293 2.76107Z" fill="#819EB0" fill-opacity="0.8"/>
</svg>

<svg width="42" height="32" fill="none" xmlns="http://www.w3.org/2000/svg"><path d="M8.097 31.93v-2.125c0-.814-.496-1.345-1.345-1.345-.425 0-.885.142-1.204.602-.247-.39-.601-.602-1.132-.602-.354 0-.708.106-.991.496v-.425H2.68v3.398h.744v-1.876c0-.602.318-.885.814-.885.495 0 .743.319.743.885v1.876h.743v-1.876c0-.602.354-.885.814-.885.496 0 .744.319.744.885v1.876h.814zm11.008-3.399h-1.203v-1.027h-.743v1.027h-.673v.672h.673v1.558c0 .779.318 1.239 1.168 1.239.318 0 .672-.106.92-.248l-.212-.637c-.213.142-.46.177-.637.177-.354 0-.496-.212-.496-.566v-1.523h1.203v-.672zm6.301-.07a.998.998 0 0 0-.885.495v-.425h-.743v3.398h.743v-1.911c0-.567.248-.885.708-.885.142 0 .319.035.46.07l.213-.707c-.142-.036-.354-.036-.496-.036zm-9.522.353c-.354-.248-.85-.354-1.38-.354-.85 0-1.416.425-1.416 1.098 0 .566.425.884 1.168.99l.354.036c.39.07.602.177.602.354 0 .248-.283.425-.779.425-.495 0-.885-.177-1.133-.354l-.354.566c.39.283.92.425 1.452.425.99 0 1.557-.46 1.557-1.097 0-.602-.46-.92-1.168-1.027l-.354-.035c-.319-.036-.566-.107-.566-.319 0-.248.247-.39.637-.39.425 0 .85.178 1.062.284l.318-.602zm19.752-.354a.998.998 0 0 0-.885.496v-.425h-.743v3.398h.743v-1.911c0-.567.248-.885.708-.885.142 0 .319.035.46.07l.213-.707c-.142-.036-.354-.036-.496-.036zm-9.487 1.77c0 1.027.709 1.77 1.806 1.77.495 0 .85-.106 1.203-.39l-.354-.601c-.283.212-.566.318-.885.318-.601 0-1.026-.424-1.026-1.097 0-.637.425-1.062 1.026-1.097.319 0 .602.106.885.318l.354-.601c-.354-.284-.708-.39-1.203-.39-1.097 0-1.805.743-1.805 1.77zm6.868 0v-1.699h-.744v.425c-.248-.319-.602-.496-1.062-.496-.955 0-1.699.743-1.699 1.77 0 1.027.744 1.77 1.7 1.77.495 0 .849-.177 1.061-.496v.425h.744V30.23zm-2.726 0c0-.602.39-1.097 1.026-1.097.602 0 1.027.46 1.027 1.097 0 .602-.425 1.097-1.027 1.097-.637-.035-1.026-.495-1.026-1.097zm-8.885-1.77c-.99 0-1.699.708-1.699 1.77S20.415 32 21.442 32c.495 0 .99-.142 1.38-.46l-.354-.531a1.692 1.692 0 0 1-.99.354c-.461 0-.921-.212-1.027-.814h2.513v-.284c.035-1.097-.602-1.805-1.558-1.805zm0 .637c.46 0 .779.284.85.814h-1.77c.07-.46.39-.814.92-.814zm18.442 1.133v-3.044h-.743v1.77c-.248-.319-.602-.496-1.062-.496-.956 0-1.7.743-1.7 1.77 0 1.027.744 1.77 1.7 1.77.496 0 .85-.177 1.062-.496v.425h.743V30.23zm-2.725 0c0-.602.389-1.097 1.026-1.097.602 0 1.027.46 1.027 1.097 0 .602-.425 1.097-1.027 1.097-.637-.035-1.026-.495-1.026-1.097zm-24.85 0v-1.699h-.742v.425c-.248-.319-.602-.496-1.062-.496-.956 0-1.7.743-1.7 1.77 0 1.027.744 1.77 1.7 1.77.495 0 .85-.177 1.062-.496v.425h.743V30.23zm-2.76 0c0-.602.39-1.097 1.026-1.097.602 0 1.027.46 1.027 1.097 0 .602-.425 1.097-1.027 1.097-.637-.035-1.026-.495-1.026-1.097zm10.584-7.115c.106.07.212.177.318.248a12.7 12.7 0 0 1-7.044 2.124c-7.044 0-12.743-5.7-12.743-12.744S6.328 0 13.371 0c2.62 0 5.027.779 7.044 2.124-.106.07-.212.177-.318.248a13.684 13.684 0 0 0-4.708 10.371c0 4 1.699 7.753 4.708 10.372zM29.087 0c-2.619 0-5.026.779-7.043 2.124.106.07.212.177.318.248a13.684 13.684 0 0 1 4.708 10.371c0 3.965-1.735 7.753-4.708 10.372-.106.07-.212.177-.318.248a12.7 12.7 0 0 0 7.043 2.124c7.045 0 12.744-5.7 12.744-12.744C41.83 5.735 36.13 0 29.087 0zM21.23 2.761c-.177.142-.318.248-.495.39a12.694 12.694 0 0 0-4.39 9.628c0 3.823 1.7 7.292 4.39 9.628.141.142.318.283.495.39.177-.142.319-.248.496-.39a12.694 12.694 0 0 0 4.39-9.628 12.75 12.75 0 0 0-4.39-9.629c-.177-.141-.319-.283-.496-.389z" fill="#819EB0" fill-opacity=".8"/></svg>
